src/assets/outline/Shuffle.svg

<svg width="24" height="24" viewBox="0 0 24 24"  xmlns="http://www.w3.org/2000/svg">
<path d="M5.56024 18.74C5.56024 18.74 5.55025 18.74 5.54025 18.74L2.99023 18.73C2.58023 18.73 2.24023 18.39 2.24023 17.98C2.24023 17.57 2.58023 17.23 2.99023 17.23L5.54025 17.24H5.55023C6.20023 17.24 6.81026 16.92 7.17026 16.37L13.5602 6.78998C14.2002 5.82998 15.2702 5.25 16.4302 5.25C16.4302 5.25 16.4403 5.25 16.4503 5.25L21.0002 5.27002C21.4102 5.27002 21.7502 5.61002 21.7502 6.02002C21.7502 6.43002 21.4102 6.77002 21.0002 6.77002L16.4503 6.75H16.4402C15.7902 6.75 15.1803 7.07 14.8203 7.62L8.43024 17.2C7.79024 18.17 6.72024 18.74 5.56024 18.74Z" />
<path d="M18.9999 20.7299C18.8099 20.7299 18.6199 20.6599 18.4699 20.5099C18.1799 20.2199 18.1799 19.7399 18.4699 19.4499L20.4699 17.4499C20.7599 17.1599 21.2399 17.1599 21.5299 17.4499C21.8199 17.7399 21.8199 18.2199 21.5299 18.5099L19.5299 20.5099C19.3799 20.6599 19.1899 20.7299 18.9999 20.7299Z" />
<path d="M8.89001 9.38C8.66001 9.38 8.43 9.27001 8.28 9.07001L7.20001 7.57001C6.83001 7.06001 6.21999 6.76001 5.60999 6.76001L3 6.77002C2.54 6.76002 2.25 6.44002 2.25 6.02002C2.25 5.61002 2.58 5.27002 3 5.27002L5.60999 5.26001C5.61999 5.26001 5.62 5.26001 5.63 5.26001C6.74001 5.26001 7.77999 5.8 8.42999 6.69L9.51001 8.19C9.75001 8.53 9.68 8.98999 9.34 9.23999C9.2 9.32999 9.05001 9.38 8.89001 9.38Z" />
<path d="M16.32 18.7499C15.26 18.7499 14.24 18.2499 13.59 17.4099L12.37 15.84C12.12 15.51 12.18 15.0399 12.5 14.7899C12.83 14.5399 13.3 14.5999 13.55 14.9199L14.77 16.4899C15.14 16.9699 15.73 17.2099 16.32 17.2499L20.99 17.2299C21.4 17.2299 21.74 17.5599 21.74 17.9799C21.74 18.3899 21.41 18.7299 20.99 18.7299L16.32 18.7499C16.32 18.7499 16.33 18.7499 16.32 18.7499Z" />
<path d="M20.9999 6.76999C20.8099 6.76999 20.6199 6.69996 20.4699 6.54996L18.4699 4.54996C18.1799 4.25996 18.1799 3.77996 18.4699 3.48996C18.7599 3.19996 19.2399 3.19996 19.5299 3.48996L21.5299 5.48996C21.8199 5.77996 21.8199 6.25996 21.5299 6.54996C21.3799 6.69996 21.1899 6.76999 20.9999 6.76999Z" />
</svg>

<?xml version="1.0" encoding="UTF-8"?>
<svg width="24" height="24" viewBox="0 0 24 24" xmlns="http://www.w3.org/2000/svg">
 <path d="m5.5602 18.74h-0.01999l-2.55-0.01c-0.41 0-0.75-0.34-0.75-0.75s0.34-0.75 0.75-0.75l2.55 0.01h0.00998c0.65 0 1.26-0.32 1.62-0.87l6.3899-9.58c0.64-0.96 1.71-1.54 2.87-1.54h0.0201l4.5499 0.02002c0.41 0 0.75 0.34 0.75 0.75s-0.34 0.75-0.75 0.75l-4.5499-0.02002h-0.0101c-0.65 0-1.2599 0.32-1.6199 0.87l-6.3901 9.58c-0.64 0.97-1.71 1.54-2.87 1.54z"/>
 <path d="m19 20.73c-0.19 0-0.38-0.07-0.53-0.22-0.29-0.29-0.29-0.77 0-1.06l2-2c0.29-0.29 0.77-0.29 1.06 0s0.29 0.77 0 1.06l-2 2c-0.15 0.15-0.34 0.22-0.53 0.22z"/>
 <path d="m8.89 9.38c-0.23 0-0.46001-0.10999-0.61001-0.30999l-1.08-1.5c-0.37-0.51-0.98002-0.81-1.59-0.81l-2.61 0.01001c-0.46-0.01-0.75-0.33-0.75-0.75 0-0.41 0.33-0.75 0.75-0.75l2.61-0.01001h0.02001c1.11 0 2.15 0.53999 2.8 1.43l1.08 1.5c0.24 0.34 0.16999 0.79999-0.17001 1.05-0.14 0.09-0.28999 0.14001-0.44999 0.14001z"/>
 <path d="m16.32 18.75c-1.06 0-2.08-0.5-2.73-1.34l-1.22-1.5699c-0.25-0.33-0.19-0.8001 0.13-1.0501 0.33-0.25 0.8-0.19 1.05 0.13l1.22 1.57c0.37 0.48 0.96 0.72 1.55 0.76l4.67-0.02c0.41 0 0.75 0.33 0.75 0.75 0 0.41-0.33 0.75-0.75 0.75l-4.67 0.02s0.01 0 0 0z"/>
 <path d="m21 6.77c-0.19 0-0.38-0.07003-0.53-0.22003l-2-2c-0.29-0.29-0.29-0.77 0-1.06s0.77-0.29 1.06 0l2 2c0.29 0.29 0.29 0.77 0 1.06-0.15 0.15-0.34 0.22003-0.53 0.22003z"/>
</svg>
